X:1
T:Balkan's Revenge
R:Klezmer Reel
C:Andrew Marcus
H:Written Oct 19th, 2002
N:I wrote this tune while driving to the "Cream of the Crop" dance weekend in
N:Syracuse, NY.   It just kinda popped into my head...
P:AABB
M:4/4
L:1/8
Q:1/2=120
K:Am
P:A
|: "Am#11" A,B,CE ~^D2 CB, | A,B,CE ~^D2 CB, | A,B,CE ~^D2 CB, | "Cm" A,C AC "DM" GC ^FC |
   "Am#11" A,B,CE ~^D2 CB, | A,B,CE ~^D2 CB, |[1 "Am" A,B,CA, "G" B,A,G,B, | "DM" A,G,^F,A, "Em" G,^F,E,z :| \
                                             [2 "Am" A,B,CA, "E7" B,A,^G,B, | "Am" A,z A,^G, "A7" A,B,C^C ||
P:B
|: "DM" D_E^FG ~A3 F | A^F_BF A3 F | "Cm" Gdc_B AG^F_E | "Amb5"^FGAG ~^F3 _E |
   "DM" D_E^FG ~A3 F | A^F_BF A3 F |[1 "Gm" Gdc_B AG^F_E | "Cm" ^FGAG _E3 F :| \
                                    [2 "Gm" Gdc_B "Cm" AG^F_E | "DM" D2D_E DC=B,C |]
